Badges/Roblox-Styled/Original/link-benchmarks.svg

<svg width="118" height="32" viewBox="0 0 118 32" fill="none" xmlns="http://www.w3.org/2000/svg">
<g filter="url(#filter0_i_24_166)">
<rect width="118" height="32" rx="4" fill="#335FFF"/>
<path d="M16 10C16.8385 10 17.6458 10.1432 18.4219 10.4297L13.9922 13.9141C13.6484 14.1953 13.3776 14.5339 13.1797 14.9297C12.9766 15.3464 12.875 15.7865 12.875 16.25C12.875 16.7917 13.0104 17.2969 13.2812 17.7656C13.5469 18.2188 13.9062 18.5781 14.3594 18.8438C14.8281 19.1146 15.3333 19.25 15.875 19.25C16.3854 19.25 16.8646 19.1276 17.3125 18.8828C17.7396 18.6484 18.0911 18.3281 18.3672 17.9219L21.8984 13.2266C22.2526 13.7786 22.5234 14.3698 22.7109 15C22.9036 15.651 23 16.3177 23 17C23 17.9635 22.8125 18.8828 22.4375 19.7578C22.0729 20.6068 21.5599 21.3542 20.8984 22H11.1016C10.4401 21.3542 9.92708 20.6068 9.5625 19.7578C9.1875 18.8828 9 17.9635 9 17C9 16.0521 9.18229 15.1432 9.54688 14.2734C9.90104 13.4349 10.401 12.6927 11.0469 12.0469C11.6927 11.401 12.4349 10.901 13.2734 10.5469C14.1432 10.1823 15.0521 10 16 10ZM21.3281 10.0547C21.4219 9.98177 21.5208 9.95052 21.625 9.96094C21.7344 9.97135 21.8255 10.0156 21.8984 10.0938C21.9766 10.1667 22.0208 10.2552 22.0312 10.3594C22.0469 10.4635 22.0182 10.5651 21.9453 10.6641L17.1484 17.0391C17.013 17.2578 16.8333 17.4323 16.6094 17.5625C16.3854 17.6875 16.138 17.75 15.8672 17.75C15.6016 17.75 15.3542 17.6823 15.125 17.5469C14.8958 17.4115 14.7135 17.2292 14.5781 17C14.4427 16.7708 14.375 16.5208 14.375 16.25C14.375 16.0156 14.4245 15.7969 14.5234 15.5938C14.6224 15.3906 14.7604 15.2214 14.9375 15.0859L21.3281 10.0547Z" fill="white"/>
<path d="M31.861 20H28.814V12.3H31.795C33.445 12.3 34.27 13.037 34.27 14.313C34.27 15.028 33.973 15.512 33.478 15.831V16.007C34.072 16.216 34.589 16.7 34.589 17.701C34.589 19.142 33.808 20 31.861 20ZM30.31 13.708V15.292H31.784C32.477 15.292 32.774 14.984 32.774 14.478C32.774 14.016 32.477 13.708 31.784 13.708H30.31ZM30.31 16.656V18.592H31.949C32.609 18.592 33.071 18.306 33.071 17.624C33.071 16.942 32.609 16.656 31.949 16.656H30.31ZM38.3479 20.11C36.5769 20.11 35.4219 18.911 35.4219 17.129C35.4219 15.347 36.5769 14.126 38.2269 14.126C40.0089 14.126 40.8999 15.347 40.8999 17.052V17.547H36.8409C36.9619 18.449 37.5339 18.834 38.3479 18.834C38.9419 18.834 39.3929 18.647 39.8439 18.273L40.6909 19.285C40.0749 19.857 39.1949 20.11 38.3479 20.11ZM38.2269 15.314C37.5229 15.314 37.0609 15.677 36.8849 16.403H39.5029C39.4149 15.71 38.9529 15.314 38.2269 15.314ZM43.4113 20H42.0033V14.236H43.4113V15.05L43.5873 15.116C43.8733 14.555 44.3903 14.126 45.2483 14.126C46.5243 14.126 47.2173 14.995 47.2173 16.293V20H45.8093V16.667C45.8093 15.798 45.3693 15.424 44.6763 15.424C44.1043 15.424 43.6423 15.743 43.4113 16.194V20ZM51.1945 20.11C49.4565 20.11 48.3125 18.9 48.3125 17.118C48.3125 15.336 49.4565 14.126 51.1945 14.126C52.0965 14.126 52.9655 14.489 53.4715 15.138L52.5255 16.084C52.2065 15.699 51.7335 15.424 51.1615 15.424C50.3255 15.424 49.7425 16.04 49.7425 17.118C49.7425 18.196 50.3255 18.812 51.1615 18.812C51.7335 18.812 52.2065 18.537 52.5255 18.152L53.4715 19.098C52.9655 19.747 52.0965 20.11 51.1945 20.11ZM55.8938 20H54.4858V12.19H55.8938V15.05L56.0698 15.116C56.3448 14.566 56.8728 14.126 57.7308 14.126C59.0178 14.126 59.6998 14.995 59.6998 16.293V20H58.2918V16.667C58.2918 15.798 57.8738 15.424 57.1368 15.424C56.5538 15.424 56.0918 15.798 55.8938 16.194V20ZM62.511 20H61.103V14.236H62.511V15.05L62.687 15.116C62.94 14.555 63.413 14.126 64.172 14.126C64.953 14.126 65.393 14.467 65.69 15.05H65.866C66.284 14.522 66.713 14.126 67.604 14.126C68.748 14.126 69.375 14.962 69.375 16.216V20H67.967V16.447C67.967 15.765 67.659 15.424 67.065 15.424C66.548 15.424 66.141 15.71 65.943 16.117V20H64.535V16.447C64.535 15.765 64.227 15.424 63.666 15.424C63.116 15.424 62.709 15.71 62.511 16.117V20ZM72.3107 20.11C71.3427 20.11 70.4737 19.516 70.4737 18.295C70.4737 17.195 71.2657 16.48 72.8167 16.48H74.1587V16.381C74.1587 15.6 73.6967 15.336 73.0917 15.336C72.4537 15.336 71.9477 15.611 71.3317 16.073L70.6607 15.028C71.3647 14.5 72.1787 14.126 73.1247 14.126C74.5437 14.126 75.5667 14.709 75.5667 16.337V20H74.1587V19.351L73.9827 19.285C73.5867 19.824 73.0697 20.11 72.3107 20.11ZM72.7727 18.9C73.3887 18.9 73.8727 18.559 74.1587 18.152V17.492H72.7947C72.2117 17.492 71.8817 17.734 71.8817 18.196C71.8817 18.625 72.2447 18.9 72.7727 18.9ZM78.4309 20H77.0229V14.236H78.4309V15.05L78.6069 15.116C78.9259 14.489 79.4539 14.126 80.1359 14.126C80.3009 14.126 80.4769 14.148 80.6309 14.181V15.6C80.4109 15.523 80.1359 15.468 79.7839 15.468C79.1789 15.468 78.6729 15.842 78.4309 16.348V20ZM86.5296 14.236L84.5166 16.92V17.052L86.5296 20H84.8686L83.1746 17.569H82.8996V20H81.4916V12.19H82.8996V16.392H83.1746L84.7696 14.236H86.5296ZM89.2404 20.11C88.2504 20.11 87.5024 19.758 86.8534 19.23L87.6014 18.218C88.0744 18.625 88.6134 18.9 89.2404 18.9C89.8344 18.9 90.1534 18.702 90.1534 18.339C90.1534 17.976 89.8894 17.866 89.4494 17.778L88.7124 17.624C87.7114 17.415 87.1174 16.92 87.1174 15.974C87.1174 14.83 87.9424 14.126 89.2734 14.126C90.1094 14.126 90.8684 14.379 91.4624 14.918L90.6814 15.886C90.2524 15.534 89.7904 15.336 89.2514 15.336C88.8444 15.336 88.4814 15.49 88.4814 15.82C88.4814 16.084 88.6574 16.26 89.2184 16.381L90.0324 16.557C90.9014 16.744 91.5504 17.195 91.5504 18.152C91.5504 19.384 90.6374 20.11 89.2404 20.11Z" fill="white"/>
<path d="M101.625 11.1875C101.781 11.1875 101.914 11.2422 102.023 11.3516C102.133 11.4609 102.188 11.5938 102.188 11.75C102.188 11.9062 102.133 12.0391 102.023 12.1484C101.914 12.2578 101.781 12.3125 101.625 12.3125H98.0625V20.1875H105.938V16.625C105.938 16.4688 105.992 16.3359 106.102 16.2266C106.211 16.1172 106.344 16.0625 106.5 16.0625C106.656 16.0625 106.789 16.1172 106.898 16.2266C107.008 16.3359 107.062 16.4688 107.062 16.625V20.375C107.062 20.543 107.02 20.6992 106.934 20.8438C106.852 20.9883 106.738 21.1016 106.594 21.1836C106.449 21.2695 106.293 21.3125 106.125 21.3125H97.875C97.707 21.3125 97.5508 21.2695 97.4062 21.1836C97.2617 21.1016 97.1465 20.9883 97.0605 20.8438C96.9785 20.6992 96.9375 20.543 96.9375 20.375V12.125C96.9375 11.957 96.9785 11.8008 97.0605 11.6562C97.1465 11.5117 97.2617 11.3984 97.4062 11.3164C97.5508 11.2305 97.707 11.1875 97.875 11.1875H101.625ZM106.5 11.1875C106.656 11.1875 106.789 11.2422 106.898 11.3516C107.008 11.4609 107.062 11.5938 107.062 11.75V14C107.062 14.1562 107.008 14.2891 106.898 14.3984C106.789 14.5078 106.656 14.5625 106.5 14.5625C106.344 14.5625 106.211 14.5078 106.102 14.3984C105.992 14.2891 105.938 14.1562 105.938 14V13.1094L102.398 16.6484C102.289 16.7578 102.156 16.8125 102 16.8125C101.844 16.8125 101.711 16.7578 101.602 16.6484C101.492 16.5391 101.438 16.4062 101.438 16.25C101.438 16.0938 101.492 15.9609 101.602 15.8516L105.141 12.3125H104.25C104.094 12.3125 103.961 12.2578 103.852 12.1484C103.742 12.0391 103.688 11.9062 103.688 11.75C103.688 11.5938 103.742 11.4609 103.852 11.3516C103.961 11.2422 104.094 11.1875 104.25 11.1875H106.5Z" fill="white"/>
</g>
<defs>
<filter id="filter0_i_24_166" x="0" y="-2" width="118" height="34" filterUnits="userSpaceOnUse" color-interpolation-filters="sRGB">
<feFlood flood-opacity="0" result="BackgroundImageFix"/>
<feBlend mode="normal" in="SourceGraphic" in2="BackgroundImageFix" result="shape"/>
<feColorMatrix in="SourceAlpha" type="matrix" values="0 0 0 0 0 0 0 0 0 0 0 0 0 0 0 0 0 0 127 0" result="hardAlpha"/>
<feOffset dy="-2"/>
<feGaussianBlur stdDeviation="1.65"/>
<feComposite in2="hardAlpha" operator="arithmetic" k2="-1" k3="1"/>
<feColorMatrix type="matrix" values="0 0 0 0 1 0 0 0 0 1 0 0 0 0 1 0 0 0 0.11 0"/>
<feBlend mode="normal" in2="shape" result="effect1_innerShadow_24_166"/>
</filter>
</defs>
</svg>

<svg xmlns="http://www.w3.org/2000/svg" width="118" height="32" fill="none">
  <g filter="url(#a)">
    <rect width="118" height="32" fill="#335fff" rx="4"/>
    <path fill="#fff" d="M16 10q1.258 0 2.422.43l-4.43 3.484q-.515.422-.812 1.016a3 3 0 0 0-.305 1.32q0 .813.406 1.516.399.68 1.078 1.078.704.406 1.516.406.765 0 1.438-.367a3 3 0 0 0 1.054-.961l3.531-4.695q.532.828.813 1.773A7 7 0 0 1 23 17q0 1.445-.562 2.758A6.9 6.9 0 0 1 20.898 22h-9.796a6.9 6.9 0 0 1-1.54-2.242A6.9 6.9 0 0 1 9 17q0-1.422.547-2.727a6.9 6.9 0 0 1 1.5-2.226 6.9 6.9 0 0 1 2.226-1.5A7 7 0 0 1 16 10m5.328.055a.415.415 0 0 1 .57.04.4.4 0 0 1 .133.264.4.4 0 0 1-.086.305l-4.797 6.375a1.5 1.5 0 0 1-.539.523 1.5 1.5 0 0 1-.742.188q-.398 0-.742-.203a1.5 1.5 0 0 1-.547-.547 1.45 1.45 0 0 1-.203-.75q0-.351.148-.656.149-.305.415-.508zM31.861 20h-3.047v-7.7h2.981c1.65 0 2.475.737 2.475 2.013 0 .715-.297 1.199-.792 1.518v.176c.594.209 1.111.693 1.111 1.694 0 1.441-.781 2.299-2.728 2.299m-1.551-6.292v1.584h1.474c.693 0 .99-.308.99-.814 0-.462-.297-.77-.99-.77zm0 2.948v1.936h1.639c.66 0 1.122-.286 1.122-.968s-.462-.968-1.122-.968zm8.038 3.454c-1.771 0-2.926-1.199-2.926-2.981s1.155-3.003 2.805-3.003c1.782 0 2.673 1.221 2.673 2.926v.495h-4.06c.122.902.694 1.287 1.508 1.287.594 0 1.045-.187 1.496-.561l.847 1.012c-.616.572-1.496.825-2.343.825m-.121-4.796c-.704 0-1.166.363-1.342 1.089h2.618c-.088-.693-.55-1.089-1.276-1.089M43.41 20h-1.408v-5.764h1.408v.814l.176.066c.286-.561.803-.99 1.661-.99 1.276 0 1.97.869 1.97 2.167V20h-1.409v-3.333c0-.869-.44-1.243-1.133-1.243-.572 0-1.034.319-1.265.77zm7.783.11c-1.738 0-2.882-1.21-2.882-2.992s1.145-2.992 2.883-2.992c.901 0 1.77.363 2.276 1.012l-.945.946a1.76 1.76 0 0 0-1.365-.66c-.836 0-1.419.616-1.419 1.694s.584 1.694 1.42 1.694a1.76 1.76 0 0 0 1.364-.66l.945.946c-.505.649-1.374 1.012-2.276 1.012m4.7-.11h-1.408v-7.81h1.408v2.86l.176.066c.275-.55.803-.99 1.66-.99 1.288 0 1.97.869 1.97 2.167V20h-1.408v-3.333c0-.869-.418-1.243-1.155-1.243-.583 0-1.045.374-1.243.77zm6.617 0h-1.408v-5.764h1.408v.814l.176.066c.253-.561.726-.99 1.485-.99.781 0 1.221.341 1.518.924h.176c.418-.528.847-.924 1.738-.924 1.144 0 1.771.836 1.771 2.09V20h-1.408v-3.553c0-.682-.308-1.023-.902-1.023-.517 0-.924.286-1.122.693V20h-1.408v-3.553c0-.682-.308-1.023-.869-1.023-.55 0-.957.286-1.155.693zm9.8.11c-.968 0-1.837-.594-1.837-1.815 0-1.1.792-1.815 2.343-1.815h1.342v-.099c0-.781-.462-1.045-1.067-1.045-.638 0-1.144.275-1.76.737l-.671-1.045c.704-.528 1.518-.902 2.464-.902 1.419 0 2.442.583 2.442 2.211V20h-1.408v-.649l-.176-.066c-.396.539-.913.825-1.672.825m.462-1.21c.616 0 1.1-.341 1.386-.748v-.66h-1.364c-.583 0-.913.242-.913.704 0 .429.363.704.89.704M78.43 20h-1.408v-5.764h1.408v.814l.176.066c.319-.627.847-.99 1.529-.99.165 0 .34.022.495.055V15.6a2.5 2.5 0 0 0-.847-.132c-.605 0-1.111.374-1.353.88zm8.099-5.764-2.013 2.684v.132L86.53 20h-1.661l-1.694-2.431H82.9V20h-1.408v-7.81H82.9v4.202h.275l1.595-2.156zm2.71 5.874c-.99 0-1.738-.352-2.387-.88l.748-1.012c.473.407 1.012.682 1.64.682.593 0 .912-.198.912-.561s-.264-.473-.704-.561l-.737-.154c-1-.209-1.595-.704-1.595-1.65 0-1.144.825-1.848 2.156-1.848.836 0 1.595.253 2.19.792l-.782.968c-.429-.352-.89-.55-1.43-.55-.407 0-.77.154-.77.484 0 .264.176.44.737.561l.814.176c.87.187 1.518.638 1.518 1.595 0 1.232-.913 1.958-2.31 1.958m12.386-8.922q.234 0 .398.164a.54.54 0 0 1 .165.398.54.54 0 0 1-.165.398.54.54 0 0 1-.398.165h-3.562v7.874h7.875v-3.562a.54.54 0 0 1 .164-.398.54.54 0 0 1 .398-.165q.234 0 .398.165a.54.54 0 0 1 .164.398v3.75a.9.9 0 0 1-.128.469.9.9 0 0 1-.34.34.9.9 0 0 1-.469.128h-8.25a.9.9 0 0 1-.469-.128.93.93 0 0 1-.346-.34.93.93 0 0 1-.123-.469v-8.25q0-.252.124-.469a.93.93 0 0 1 .345-.34.9.9 0 0 1 .469-.129zm4.875 0q.234 0 .398.164a.54.54 0 0 1 .164.398V14a.54.54 0 0 1-.164.398.54.54 0 0 1-.398.165.54.54 0 0 1-.398-.165.54.54 0 0 1-.164-.398v-.89l-3.54 3.538a.54.54 0 0 1-.398.165.54.54 0 0 1-.398-.165.54.54 0 0 1-.164-.398.54.54 0 0 1 .164-.398l3.539-3.54h-.891a.54.54 0 0 1-.398-.164.54.54 0 0 1-.164-.398.54.54 0 0 1 .164-.398.54.54 0 0 1 .398-.165z"/>
  </g>
  <defs>
    <filter id="a" width="118" height="34" x="0" y="-2" color-interpolation-filters="sRGB" filterUnits="userSpaceOnUse">
      <feFlood flood-opacity="0" result="BackgroundImageFix"/>
      <feBlend in="SourceGraphic" in2="BackgroundImageFix" result="shape"/>
      <feColorMatrix in="SourceAlpha" result="hardAlpha" values="0 0 0 0 0 0 0 0 0 0 0 0 0 0 0 0 0 0 127 0"/>
      <feOffset dy="-2"/>
      <feGaussianBlur stdDeviation="1.65"/>
      <feComposite in2="hardAlpha" k2="-1" k3="1" operator="arithmetic"/>
      <feColorMatrix values="0 0 0 0 1 0 0 0 0 1 0 0 0 0 1 0 0 0 0.11 0"/>
      <feBlend in2="shape" result="effect1_innerShadow_24_166"/>
    </filter>
  </defs>
</svg>
